dist/assets/images/icons/instagram.svg

<svg width="16" height="16" viewBox="0 0 16 16" fill="none" xmlns="http://www.w3.org/2000/svg">
<path d="M15.783 8.03143C15.783 9.11893 15.7611 10.2096 15.7893 11.2971C15.8361 13.2221 14.6268 14.7096 13.0861 15.3721C12.4674 15.6377 11.8174 15.7783 11.1455 15.7783C9.04238 15.7814 6.93613 15.8096 4.83301 15.7689C3.24863 15.7377 1.94551 15.0752 1.01113 13.7689C0.520508 13.0814 0.286133 12.3002 0.286133 11.4533C0.286133 9.21268 0.286133 6.97518 0.286133 4.73455C0.286133 2.90643 1.17676 1.6283 2.75801 0.79705C3.44551 0.437675 4.19238 0.28455 4.97051 0.281425C7.01113 0.281425 9.05488 0.268925 11.0955 0.287675C12.6799 0.300175 14.0018 0.906426 14.9768 2.18143C15.5205 2.89393 15.783 3.71268 15.783 4.61268C15.783 5.75018 15.783 6.8908 15.783 8.03143ZM1.43926 8.03143C1.43926 9.1783 1.43926 10.3221 1.43926 11.4689C1.43926 11.9814 1.55801 12.4627 1.82363 12.8971C2.52051 14.0377 3.57363 14.5939 4.87988 14.6158C6.97676 14.6471 9.07676 14.6283 11.1768 14.6221C11.6924 14.6221 12.1924 14.5158 12.658 14.2939C13.9268 13.6877 14.6361 12.7221 14.6299 11.2721C14.6174 9.0533 14.6268 6.83455 14.6268 4.6158C14.6268 3.98768 14.4486 3.41268 14.0768 2.90643C13.358 1.93455 12.3643 1.45643 11.1768 1.44393C9.08301 1.41893 6.98926 1.43455 4.89551 1.43768C4.44863 1.43768 4.01738 1.5283 3.59863 1.68455C2.44863 2.11268 1.37988 3.19705 1.42988 4.79393C1.46738 5.87518 1.43926 6.9533 1.43926 8.03143Z" fill="white"/>
<path d="M8.05 11.3438C6.03438 11.3438 4.40938 9.7375 4.40625 7.7375C4.40313 5.76875 6.04063 4.15625 8.04375 4.15625C10.0531 4.15313 11.6844 5.7625 11.6875 7.74688C11.6875 9.72813 10.0594 11.3406 8.05 11.3438ZM8.05 10.1875C9.42188 10.1875 10.5344 9.09063 10.5313 7.74063C10.5281 6.40313 9.41563 5.30938 8.05 5.30938C6.67813 5.30938 5.55938 6.4 5.55938 7.74688C5.5625 9.09688 6.67813 10.1906 8.05 10.1875Z" fill="white"/>
<path d="M12.1112 3.0625C12.533 3.0625 12.8768 3.42187 12.8768 3.8625C12.8737 4.30312 12.5268 4.65937 12.1049 4.65625C11.6893 4.65312 11.3487 4.29687 11.3487 3.86562C11.3455 3.425 11.6893 3.0625 12.1112 3.0625Z" fill="white"/>
</svg>

<svg width="16" height="16" fill="none" xmlns="http://www.w3.org/2000/svg"><path d="M15.783 8.031c0 1.088-.022 2.179.006 3.266.047 1.925-1.162 3.413-2.703 4.075a4.888 4.888 0 01-1.94.406c-2.104.003-4.21.032-6.313-.01-1.584-.03-2.887-.693-3.822-2a3.901 3.901 0 01-.725-2.315V4.735c0-1.829.89-3.107 2.472-3.938.688-.36 1.434-.512 2.213-.516 2.04 0 4.084-.012 6.124.007C12.68.3 14.002.906 14.977 2.18a3.91 3.91 0 01.806 2.432V8.03zm-14.344 0v3.438c0 .512.119.994.385 1.428.697 1.14 1.75 1.697 3.056 1.719 2.097.031 4.197.012 6.297.006.515 0 1.015-.106 1.481-.328 1.269-.606 1.978-1.572 1.972-3.022-.013-2.219-.003-4.437-.003-6.656a2.82 2.82 0 00-.55-1.71c-.719-.971-1.713-1.45-2.9-1.462-2.094-.025-4.188-.01-6.281-.006-.447 0-.879.09-1.297.247-1.15.428-2.22 1.512-2.17 3.109.038 1.081.01 2.16.01 3.237z" fill="#fff"/><path d="M8.05 11.344c-2.016 0-3.64-1.606-3.644-3.606-.003-1.97 1.635-3.582 3.638-3.582 2.01-.003 3.64 1.607 3.643 3.59 0 1.982-1.628 3.595-3.637 3.598zm0-1.156c1.372 0 2.484-1.097 2.481-2.447-.003-1.338-1.115-2.432-2.481-2.432-1.372 0-2.49 1.091-2.49 2.438.003 1.35 1.118 2.444 2.49 2.44zm4.061-7.125c.422 0 .766.359.766.8-.003.44-.35.796-.772.793-.416-.003-.756-.36-.756-.79-.004-.441.34-.804.762-.804z" fill="#fff"/></svg>
